!!!OTL: Winter (The Lamb, The Lamb)
!!!COL: LSB
**kern	**text	**text	**text	**text	**text
*clefG2	*	*	*	*	*
*k	*	*	*	*	*
*M4/4	*	*	*	*	*
*C:	*	*	*	*	*
=1	=1	=1	=1	=1	=1
4g	1.The	2.The	3.The	4.He	5.He
=2	=2	=2	=2	=2	=2
4f	La-	La-	La-	si-	ro-
2e	mb,	mb,	mb,	ghs,	se,
4e	the	the	the	he	He
=3	=3	=3	=3	=3	=3
4d	La-	La-	La-	di-	ro-
2c	mb,	mb,	mb,	es,	se,
4c	O	One	As	He	My
=4	=4	=4	=4	=4	=4
4d	Fa-	per-	way-	takes	heart
4e	ther,	fect	ward	my	with
4f	where's	fi-	sheep	sin	thanks
4e	the	nal	their	and	now
=5	=5	=5	=5	=5	=5
4d	sac-	of-	shep-	wretch-	over-
4e	ri-	fer-	hard	ed-	flo-
4f;	fice?	ing.	kill	ness.	ws.
4g	Faith	The	So	He	His
=6	=6	=6	=6	=6	=6
4f	se-	La-	Sti-	li-	so-
2e	es,	mb,	ll,	ves,	ng
4e	be-	the	His	for-	pro-
=7	=7	=7	=7	=7	=7
4d	liev-	La-	wi-	giv-	lo-
2c	es	mb,	ll	es,	ng
4c	God	Let	On	He	Till
=8	=8	=8	=8	=8	=8
4d	will	earth	our	gives	ev-
4e	pro-	join	be-	me	.'ry
4f	vide	heav'n	half	His	heart
4e	the	His	the	own	to
=9	=9	=9	=9	=9	=9
4d	Lamb	praise	Law	righ-	Him
4e	of	to	to	teous-	be-
4f	pri-	si-	fi-	ne-	lo-
4g;	ce!	ng.	ll.	ss.	ng.
=10	=10	=10	=10	=10	=10
4cc	Wor-	Wor-	Wor-	Wor-	Wor-
4cc	thy	thy	thy	thy	thy
4cc	is	is	is	is	is
4cc	the	the	the	the	the
=11	=11	=11	=111	=11	=11
2.b	Lamb	Lamb	Lamb	Lamb	Lamb
4g	whose	whose	whose	whose	whose
=12	=12	=12	=122	=12	=12
4.a	death	death	death	death	death
8g	makes	makes	makes	makes	makes
4f	me	me	me	me	me
4a	his	his	his	his	his
=13	=13	=13	=133	=13	=13
2.g;	own!	own!	own!	own!	own!
4g	The	The	The	The	The
=14	=14	=14	=144	=14	=14
4f	La-	La-	La-	La-	La-
2e	mb,	mb,	mb,	mb,	mb,
4c	is	is	is	is	is
=15	=15	=15	=155	=15	=15
4f	reign-	reign-	reign-	reign-	reign-
4e	ing	ing	ing	ing	ing
4d	on	on	on	on	on
8cL	Hi-	Hi-	Hi-	Hi-	Hi-
8BJ	s	s	s	s	s
=16	=16	=16	=166	=16	=16
2.c;	Throne!	Throne!	Throne!	Throne!	Throne!
==	==	==	==	==	==
*-	*-	*-	*-	*-	*-
